X: 14331
T: Gallopede, The
R: barndance
M: 4/4
K: Gmajor
|:dc|B2 Bc A2 AB|G2 G2 G2 AB|cBcd edcB|A2 A2 A2 dc|
B2 Bc A2 AB|G2 G2 G2 AB|cBAG FGAF|G2 G2 G2:|
|:Bc|.d2 .d2 .d2 g2|.d2 .d2 .d2 g2|.d2 .d2 edcB|AGAB A2 Bc|
.d2 .d2 .d2 g2|.d2 .d2 .d2 g2|d2 B2 dcBA|G2 B2 G2:|

